images/themes/default/mIconFieldDate.svg

<svg height="128" viewBox="0 0 128 128" width="128" xmlns="http://www.w3.org/2000/svg">
<path d="m43.01639 46.16393h16.78688v16.78689h-16.78688zm25.18033 0h16.78688v16.78689h-16.78688zm25.18034 0h16.78687v16.78689h-16.78687zm-75.54099 50.36066h16.78688v16.78689h-16.78688zm25.18032 0h16.78688v16.78689h-16.78688zm25.18033 0h16.78688v16.78689h-16.78688zm-25.18033-25.18033h16.78688v16.78689h-16.78688zm25.18033 0h16.78688v16.78689h-16.78688zm25.18034 0h16.78687v16.78689h-16.78687zm-75.54099 0h16.78688v16.78689h-16.78688zm92.32786-71.34426v8.39344h-16.78687v-8.39344h-58.75411v8.39344h-16.78688v-8.39344h-14.68853v128h121.70492v-128zm8.39346 121.70492h-109.11477v-92.32788h109.11477z"/>
</svg>

<svg xmlns="http://www.w3.org/2000/svg" height="128" width="128"><path d="M43.016 46.164h16.787V62.95H43.016zm25.18 0h16.788V62.95H68.197zm25.181 0h16.787V62.95H93.377zm-75.54 50.36h16.786v16.787H17.836zm25.18 0h16.786v16.787H43.016zm25.18 0h16.787v16.787H68.197zm-25.18-25.18h16.786v16.787H43.016zm25.18 0h16.787v16.787H68.197zm25.18 0h16.787v16.787H93.377zm-75.54 0h16.786v16.787H17.836zM110.163 0v8.393H93.377V0H34.623v8.393H17.836V0H3.148v128h121.704V0zm8.393 121.705H9.443V29.377h109.114z" fill="#555"/></svg>
